!!!!SEGMENT:28Kishibenowakare_c.krn
!!!OTL:岸邊の別れ（追分より）
!!!OPR:Eiga Banso Kyokusyu,jidai-geki,zenpen
!!!YOY:1929
!!!ONB:Oiwake,Doucyu
**kern
*clefG2
*C:
*M4/4
*met(c)
=1
(16qff#\
2aa)
(4..bb
16aa)
=2
(4..ff#
16ee)
4dd
4ee
=3
4ff#
4aa
4..ee
16dd
=4
2b
(4dd
8.bL
16aJk)
=5
2f#
4.e
8f#
=6
2f#
4f#
4a
=7
2b
4dd
4b
=8
(16qdd/
2ee)
(8.ff#L
16eeJk
16ddLL
16b
16dd
16bJJ
=9
2b)
(4.a
8dd)
=10
2.b
4r
=11
2b
4dd
4a
=12
(4.f#
8e)
4f#
4a
=13
4.b
8b
4dd
4a
=14
(4.f#
8e)
4f#
4a
=15
2b
4dd
4b
=16
(16qdd/
2ee)
(8.ff#L
16eeJk
16ddLL
16b
16dd
16bJJ
=17
2b)
4.a
8dd
=18
2b
2r
==
*-
!!!ENC: Yukiko Yoden
!!!END: 2023/06/11
